apps/scalable/kodi.svg

<svg height="48" viewBox="0 0 48 48" width="48" xmlns="http://www.w3.org/2000/svg" xmlns:xlink="http://www.w3.org/1999/xlink"><linearGradient id="a"><stop offset="0" stop-color="#e6e6e6"/><stop offset="1" stop-color="#fff"/></linearGradient><linearGradient id="b"><stop offset="0" stop-color="#11b1e6"/><stop offset="1" stop-color="#2ad4ff"/></linearGradient><linearGradient id="c" gradientUnits="userSpaceOnUse" x1="676.255294518817" x2="642.314188381064" xlink:href="#a" y1="98.448015940416" y2="64.506924917222"/><linearGradient id="d" gradientUnits="userSpaceOnUse" x1="408.599576640173" x2="409.955903510999" xlink:href="#b" y1="544.55701654314" y2="502.781332021777"/><clipPath id="e"><rect height="34.763489" ry="1.406953" transform="matrix(.70710678 .70710678 -.70710678 .70710678 0 0)" width="34.763489" x="16.559393" y="-17.381733"/></clipPath><linearGradient id="f" gradientUnits="userSpaceOnUse" x1="34.059090595423" x2="34.059090595423" y1="17.649358643363" y2="-17.494647357022"><stop offset="0" stop-color="#ccc"/><stop offset="1" stop-color="#fff"/></linearGradient><linearGradient id="g" gradientUnits="userSpaceOnUse" x1="674.248113462165" x2="644.412632545833" xlink:href="#a" y1="96.395191829049" y2="66.559724198972"/><linearGradient id="h" gradientUnits="userSpaceOnUse" x1="408.599576640173" x2="409.955903510999" xlink:href="#b" y1="545.05701754314" y2="503.281333021777"/><g transform="translate(-384.57143 -499.798)"><rect fill-opacity=".666667" height="34.763489" ry="1.406953" transform="matrix(.70710679 .70710677 -.70710679 .70710677 0 0)" width="34.763489" x="642.25653" y="64.44931"/><rect fill="url(#c)" height="34.763489" ry="1.406953" transform="matrix(.70710678 .70710678 -.70710678 .70710678 0 0)" width="34.763489" x="641.90302" y="64.095757"/><path clip-path="url(#e)" d="m24.105469 3.0039062c-.519379-.0457354-.93554.3674988-4.181641 3.6171876-3.06384 3.06726-3.524381 3.5651502-3.613281 3.9062502-.0695.2716-.093872 2.852131-.076172 8.457031.005442 1.733964.015952 2.317993.023437 3.412109l-5.861328-5.861328-.001953-.001953c-.07516-.0623-.176409-.099731-.224609-.082031-.0482.01771-1.6621976 1.634487-3.5859376 3.591797-2.15811 2.1958-3.5206938 3.651444-3.5585938 3.802734-.03404.13485-.0346.360753 0 .501953.04143.16974 1.2516557 1.45107 3.5722656 3.78125l70.7109378 70.710938.328125.328125c1.78586 1.785861 3.25764 3.195311 3.33789 3.195311h.001953l11.058594 11.0586c1.04012 1.04012 1.87997 1.85824 2.09961 2.02148.40623.3019.843877.34918 1.248046.13672.293761-.1544 7.361178-7.22905 7.535158-7.54297.2004-.36162.14667-.84078-.14453-1.29102-.17833-.27571-1.51352-1.6561-3.009768-3.15234l-8.939453-8.9375c1.195391-1.190182 2.495023-2.487376 3.914062-3.914062l8.734379 8.732421c1.70565 1.705641 3.34671 3.304611 3.52929 3.398441.32888.16901.58883.18037.94922.04492.27536-.1035 7.02641-6.777121 7.49219-7.406251.35638-.48132.35591-.911678 0-1.460938-.14058-.21695-1.67148-1.806242-3.4668-3.601562l-.2832-.283203-11.746094-11.746094c-.290094-.293299-.497429-.511101-.808594-.822266l-.126953-.128906c-.052939-.052858-.057803-.055963-.109375-.107422l-70.472656-70.4746092-.128907-.1289063c-2.87202-2.86768-3.721074-3.6625906-3.958984-3.7128906-.08697-.0183938-.162131-.034482-.236328-.0410157z" fill-opacity=".078431" transform="translate(384.57143 499.798)"/><rect fill="url(#g)" height="30.558386" ry="1.236763" transform="matrix(.70710678 .70710678 -.70710678 .70710678 0 0)" width="30.558386" x="644.05127" y="66.19828"/><path d="m407.99604 544.52978c-.678-.5039-7.27134-7.23324-7.39386-7.54634-.28203-.72078-.31307-.68138 3.75838-4.76886 3.52158-3.53547 3.77237-3.76694 4.13383-3.81551.21164-.0285.50263-.0223.64666.0134.31271.0776 7.07576 6.77531 7.49335 7.42092.2912.45024.34476.92892.14436 1.29054-.17398.31392-7.24055 7.38938-7.53431 7.54378-.40417.21246-.84218.16408-1.24841-.13782zm12.8664-12.57018c-.38836-.19959-7.37554-7.20863-7.54697-7.57058-.20686-.43675-.17062-.78783.12911-1.25121.14764-.22825 1.83513-1.97577 3.74998-3.88336 3.76017-3.74596 3.78359-3.76439 4.52967-3.56391.28443.0765.99657.73887 3.83045 3.56308 1.91457 1.90806 3.60207 3.65594 3.74997 3.88419.35591.54926.35574.98-.00064 1.46132-.46578.62913-7.21735 7.30319-7.49271 7.40669-.36039.13545-.62001.12281-.94889-.0462zm-29.69273-4.03257c-2.32061-2.33018-3.53068-3.61091-3.57211-3.78065-.0346-.1412-.0349-.36705-.00086-.5019.0379-.15129 1.401-1.60819 3.55911-3.80399 1.92374-1.95731 3.53714-3.57322 3.58534-3.59093.0482-.0177.1491.019.22426.0813.11793.0981.13661 1.11971.13661 7.4691 0 4.04554-.0255 7.42196-.0564 7.50318-.0311.0812-.12618.14765-.21127.14765-.0851 0-1.73399-1.58577-3.66418-3.52391zm9.78965-.92447c-.10576-.12764-.13224-1.54875-.15318-8.22059-.0177-5.6049.007-8.18553.0765-8.45713.0889-.3411.54839-.83802 3.61223-3.90528 3.70983-3.71393 3.72317-3.72473 4.41893-3.57758.23791.0503 1.086.84609 3.95802 3.71377 2.01038 2.00736 3.71883 3.78401 3.79656 3.94816.18146.38311.17907.71732-.009 1.09166-.16719.33502-15.30169 15.56133-15.46749 15.56133-.0581 0-.16336-.0693-.2337-.15434z" fill="url(#d)"/><path d="m407.99604 545.02978c-.678-.5039-7.27134-7.23324-7.39386-7.54634-.28203-.72078-.31307-.68138 3.75838-4.76886 3.52158-3.53547 3.77237-3.76694 4.13383-3.81551.21164-.0285.50263-.0223.64666.0134.31271.0776 7.07576 6.77531 7.49335 7.42092.2912.45024.34476.92892.14436 1.29054-.17398.31392-7.24055 7.38938-7.53431 7.54378-.40417.21246-.84218.16408-1.24841-.13782zm12.8664-12.57018c-.38836-.19959-7.37554-7.20863-7.54697-7.57058-.20686-.43675-.17062-.78783.12911-1.25121.14764-.22825 1.83513-1.97577 3.74998-3.88336 3.76017-3.74596 3.78359-3.76439 4.52967-3.56391.28443.0765.99657.73887 3.83045 3.56308 1.91457 1.90806 3.60207 3.65594 3.74997 3.88419.35591.54926.35574.98-.00064 1.46132-.46578.62913-7.21735 7.30319-7.49271 7.40669-.36039.13545-.62001.12281-.94889-.0462zm-29.69273-4.03257c-2.32061-2.33018-3.53068-3.61091-3.57211-3.78065-.0346-.1412-.0349-.36705-.00086-.5019.0379-.15129 1.401-1.60819 3.55911-3.80399 1.92374-1.95731 3.53714-3.57322 3.58534-3.59093.0482-.0177.1491.019.22426.0813.11793.0981.13661 1.11971.13661 7.4691 0 4.04554-.0255 7.42196-.0564 7.50318-.0311.0812-.12618.14765-.21127.14765-.0851 0-1.73399-1.58577-3.66418-3.52391zm9.78965-.92447c-.10576-.12764-.13224-1.54875-.15318-8.22059-.0177-5.6049.007-8.18553.0765-8.45713.0889-.3411.54839-.83802 3.61223-3.90528 3.70983-3.71393 3.72317-3.72473 4.41893-3.57758.23791.0503 1.086.84609 3.95802 3.71377 2.01038 2.00736 3.71883 3.78401 3.79656 3.94816.18146.38311.17907.71732-.009 1.09166-.16719.33502-15.30169 15.56133-15.46749 15.56133-.0581 0-.16336-.0693-.2337-.15434z" fill="url(#h)"/></g></svg>

<?xml version="1.0" encoding="UTF-8" standalone="no"?>
<!-- Created with Inkscape (http://www.inkscape.org/) -->

<svg
   xmlns:dc="http://purl.org/dc/elements/1.1/"
   xmlns:cc="http://creativecommons.org/ns#"
   xmlns:rdf="http://www.w3.org/1999/02/22-rdf-syntax-ns#"
   xmlns:svg="http://www.w3.org/2000/svg"
   xmlns="http://www.w3.org/2000/svg"
   xmlns:xlink="http://www.w3.org/1999/xlink"
   xmlns:sodipodi="http://sodipodi.sourceforge.net/DTD/sodipodi-0.dtd"
   xmlns:inkscape="http://www.inkscape.org/namespaces/inkscape"
   width="48"
   height="48"
   id="svg5453"
   version="1.1"
   inkscape:version="0.91 r13725"
   sodipodi:docname="kodi.svg"
   viewBox="0 0 48 48">
  <sodipodi:namedview
     id="base"
     pagecolor="#5a5a5a"
     bordercolor="#666666"
     borderopacity="1.0"
     inkscape:pageopacity="0"
     inkscape:pageshadow="2"
     inkscape:zoom="10.947917"
     inkscape:cx="31.988839"
     inkscape:cy="20.280991"
     inkscape:document-units="px"
     inkscape:current-layer="layer1"
     showgrid="false"
     fit-margin-top="0"
     fit-margin-left="0"
     fit-margin-right="0"
     fit-margin-bottom="0"
     inkscape:window-width="1366"
     inkscape:window-height="633"
     inkscape:window-x="0"
     inkscape:window-y="33"
     inkscape:window-maximized="0"
     inkscape:showpageshadow="false"
     borderlayer="true"
     showguides="true"
     showborder="false">
    <inkscape:grid
       type="xygrid"
       id="grid4063" />
    <sodipodi:guide
       position="1.1650391e-05,43.999996"
       orientation="0,48"
       id="guide4148" />
    <sodipodi:guide
       position="48.000012,43.999996"
       orientation="-4,0"
       id="guide4150" />
    <sodipodi:guide
       position="-40,15"
       orientation="0,-48"
       id="guide4152" />
    <sodipodi:guide
       position="1.1650391e-05,4.0000264"
       orientation="4,0"
       id="guide4154" />
    <sodipodi:guide
       position="1.1650391e-05,2.6367188e-05"
       orientation="0,48"
       id="guide4156" />
    <sodipodi:guide
       position="48.000012,2.6367188e-05"
       orientation="-4,0"
       id="guide4158" />
    <sodipodi:guide
       position="48.000012,4.0000264"
       orientation="0,-48"
       id="guide4160" />
    <sodipodi:guide
       position="48.000012,48.000026"
       orientation="0,-4"
       id="guide4162" />
    <sodipodi:guide
       position="44.000012,48.000026"
       orientation="48,0"
       id="guide4164" />
    <sodipodi:guide
       position="44.000012,2.6367188e-05"
       orientation="0,4"
       id="guide4166" />
    <sodipodi:guide
       position="48.000012,2.6367188e-05"
       orientation="-48,0"
       id="guide4168" />
    <sodipodi:guide
       position="4.0000422,48.000026"
       orientation="0,-4"
       id="guide4170" />
    <sodipodi:guide
       position="4.2167969e-05,48.000026"
       orientation="48,0"
       id="guide4172" />
    <sodipodi:guide
       position="4.2167969e-05,2.6367188e-05"
       orientation="0,4"
       id="guide4174" />
    <sodipodi:guide
       position="50,46"
       orientation="-48,0"
       id="guide4176" />
    <sodipodi:guide
       position="4.0000117,47.999996"
       orientation="43.999969,0"
       id="guide4638" />
    <sodipodi:guide
       position="4.0000117,4.0000264"
       orientation="0,20"
       id="guide4640" />
    <sodipodi:guide
       position="24.000012,4.0000264"
       orientation="-43.999969,0"
       id="guide4642" />
    <sodipodi:guide
       position="24.000012,47.999996"
       orientation="0,-20"
       id="guide4644" />
    <sodipodi:guide
       position="4.0000422,24.000026"
       orientation="20,0"
       id="guide4666" />
    <sodipodi:guide
       position="4.0000422,4.0000264"
       orientation="0,39.999969"
       id="guide4668" />
    <sodipodi:guide
       position="44.000012,4.0000264"
       orientation="-20,0"
       id="guide4670" />
  </sodipodi:namedview>
  <defs
     id="defs5455">
    <linearGradient
       id="linearGradient4186"
       inkscape:collect="always">
      <stop
         id="stop4188"
         offset="0"
         style="stop-color:#e6e6e6;stop-opacity:1" />
      <stop
         id="stop4190"
         offset="1"
         style="stop-color:#ffffff;stop-opacity:1" />
    </linearGradient>
    <linearGradient
       inkscape:collect="always"
       id="linearGradient4268">
      <stop
         style="stop-color:#11b1e6;stop-opacity:1;"
         offset="0"
         id="stop4270" />
      <stop
         style="stop-color:#2ad4ff;stop-opacity:1"
         offset="1"
         id="stop4272" />
    </linearGradient>
    <linearGradient
       inkscape:collect="always"
       id="linearGradient4260">
      <stop
         style="stop-color:#cccccc;stop-opacity:1"
         offset="0"
         id="stop4262" />
      <stop
         style="stop-color:#ffffff;stop-opacity:1"
         offset="1"
         id="stop4264" />
    </linearGradient>
    <linearGradient
       id="linearGradient3058">
      <stop
         id="stop3060"
         offset="0"
         style="stop-color:#555555;stop-opacity:1;" />
      <stop
         id="stop3062"
         offset="1"
         style="stop-color:#4b4b4b;stop-opacity:1;" />
    </linearGradient>
    <linearGradient
       gradientTransform="matrix(0,-1,1,0,-1.5e-6,47.999998)"
       gradientUnits="userSpaceOnUse"
       x2="47"
       x1="1"
       id="linearGradient3764">
      <stop
         id="stop7"
         stop-opacity="1"
         stop-color="#333" />
      <stop
         id="stop9"
         stop-opacity="1"
         stop-color="#3d3d3d"
         offset="1" />
    </linearGradient>
    <clipPath
       id="clipPath-799970715">
      <g
         id="g12"
         transform="translate(0,-1004.3622)">
        <path
           id="path14"
           fill="#1890d0"
           transform="matrix(15.333333,0,0,11.5,414.99999,878.8622)"
           d="m -24 13 c 0 1.105 -0.672 2 -1.5 2 -0.828 0 -1.5 -0.895 -1.5 -2 0 -1.105 0.672 -2 1.5 -2 0.828 0 1.5 0.895 1.5 2 z" />
      </g>
    </clipPath>
    <clipPath
       id="clipPath-808101755">
      <g
         id="g17"
         transform="translate(0,-1004.3622)">
        <path
           id="path19"
           fill="#1890d0"
           transform="matrix(15.333333,0,0,11.5,414.99999,878.8622)"
           d="m -24 13 c 0 1.105 -0.672 2 -1.5 2 -0.828 0 -1.5 -0.895 -1.5 -2 0 -1.105 0.672 -2 1.5 -2 0.828 0 1.5 0.895 1.5 2 z" />
      </g>
    </clipPath>
    <linearGradient
       gradientTransform="matrix(0.75572803,0,0,0.75572803,350.51592,-314.37133)"
       inkscape:collect="always"
       xlink:href="#linearGradient4186"
       id="linearGradient4266"
       x1="431.02725"
       y1="546.25385"
       x2="386.11545"
       y2="501.34207"
       gradientUnits="userSpaceOnUse" />
    <linearGradient
       gradientTransform="matrix(1.0499999,0,0,1.0499999,-20.428566,-27.239959)"
       inkscape:collect="always"
       xlink:href="#linearGradient4268"
       id="linearGradient4274"
       x1="408.59827"
       y1="544.5686"
       x2="409.89001"
       y2="504.78223"
       gradientUnits="userSpaceOnUse" />
    <clipPath
       id="clipPath4690"
       clipPathUnits="userSpaceOnUse">
      <rect
         ry="1.8617184"
         y="1.0000042"
         x="1.0000117"
         height="46"
         width="46"
         id="rect4692"
         style="opacity:1;fill:url(#linearGradient4694);fill-opacity:1;stroke:none;stroke-width:2;stroke-miterlimit:4;stroke-dasharray:none;stroke-opacity:1" />
    </clipPath>
    <linearGradient
       gradientTransform="translate(-384.57143,-499.798)"
       y2="500.64859"
       x2="408.72745"
       y1="547.1521"
       x1="408.72745"
       gradientUnits="userSpaceOnUse"
       id="linearGradient4694"
       xlink:href="#linearGradient4260"
       inkscape:collect="always" />
    <clipPath
       clipPathUnits="userSpaceOnUse"
       id="clipPath5116">
      <rect
         ry="1.4069527"
         y="-17.381733"
         x="16.559393"
         height="34.763489"
         width="34.763489"
         id="rect5118"
         style="opacity:1;fill:url(#linearGradient5120);fill-opacity:1;stroke:none;stroke-width:2;stroke-miterlimit:4;stroke-dasharray:none;stroke-opacity:1"
         transform="matrix(0.70710678,0.70710678,-0.70710678,0.70710678,0,0)" />
    </clipPath>
    <linearGradient
       inkscape:collect="always"
       xlink:href="#linearGradient4260"
       id="linearGradient5120"
       gradientUnits="userSpaceOnUse"
       gradientTransform="matrix(0.75572803,0,0,0.75572803,-274.8277,-395.84882)"
       x1="408.72745"
       y1="547.1521"
       x2="408.72745"
       y2="500.64859" />
    <linearGradient
       inkscape:collect="always"
       xlink:href="#linearGradient4186"
       id="linearGradient4195"
       gradientUnits="userSpaceOnUse"
       gradientTransform="matrix(0.66431274,0,0,0.66431274,387.91122,-266.4882)"
       x1="431.02725"
       y1="546.25385"
       x2="386.11545"
       y2="501.34207" />
    <linearGradient
       inkscape:collect="always"
       xlink:href="#linearGradient4268"
       id="linearGradient4200"
       gradientUnits="userSpaceOnUse"
       gradientTransform="matrix(1.0499999,0,0,1.0499999,-20.428566,-26.739958)"
       x1="408.59827"
       y1="544.5686"
       x2="409.89001"
       y2="504.78223" />
  </defs>
  <metadata
     id="metadata5458">
    <rdf:RDF>
      <cc:Work
         rdf:about="">
        <dc:format>image/svg+xml</dc:format>
        <dc:type
           rdf:resource="http://purl.org/dc/dcmitype/StillImage" />
        <dc:title />
      </cc:Work>
    </rdf:RDF>
  </metadata>
  <g
     inkscape:label="Layer 1"
     inkscape:groupmode="layer"
     id="layer1"
     transform="translate(-384.57143,-499.798)">
    <rect
       ry="1.4069527"
       y="64.44931"
       x="642.25653"
       height="34.763489"
       width="34.763489"
       id="rect4202"
       style="opacity:1;fill:#000000;fill-opacity:0.66666669;stroke:none;stroke-width:2;stroke-miterlimit:4;stroke-dasharray:none;stroke-opacity:1"
       transform="matrix(0.70710679,0.70710677,-0.70710679,0.70710677,0,0)" />
    <rect
       transform="matrix(0.70710678,0.70710678,-0.70710678,0.70710678,0,0)"
       style="opacity:1;fill:url(#linearGradient4266);fill-opacity:1;stroke:none;stroke-width:2;stroke-miterlimit:4;stroke-dasharray:none;stroke-opacity:1"
       id="rect4258"
       width="34.763489"
       height="34.763489"
       x="641.90302"
       y="64.095757"
       ry="1.4069527" />
    <g
       id="g33"
       transform="translate(312.33597,496.27075)" />
    <path
       style="fill:#000000;fill-opacity:0.07843137"
       d="M 24.105469 3.0039062 C 23.58609 2.9581708 23.169929 3.371405 19.923828 6.6210938 C 16.859988 9.6883538 16.399447 10.186244 16.310547 10.527344 C 16.241047 10.798944 16.216675 13.379475 16.234375 18.984375 C 16.239817 20.718339 16.250327 21.302368 16.257812 22.396484 L 10.396484 16.535156 L 10.394531 16.533203 C 10.319371 16.470903 10.218122 16.433472 10.169922 16.451172 C 10.121722 16.468882 8.5077244 18.085659 6.5839844 20.042969 C 4.4258744 22.238769 3.0632906 23.694413 3.0253906 23.845703 C 2.9913506 23.980553 2.9907906 24.206456 3.0253906 24.347656 C 3.0668206 24.517396 4.2770463 25.798726 6.5976562 28.128906 L 77.308594 98.839844 L 77.636719 99.167969 C 79.422579 100.95383 80.894359 102.36328 80.974609 102.36328 L 80.976562 102.36328 L 92.035156 113.42188 C 93.075276 114.462 93.915126 115.28012 94.134766 115.44336 C 94.540996 115.74526 94.978643 115.79254 95.382812 115.58008 C 95.676573 115.42568 102.74399 108.35103 102.91797 108.03711 C 103.11837 107.67549 103.06464 107.19633 102.77344 106.74609 C 102.59511 106.47038 101.25992 105.08999 99.763672 103.59375 L 90.824219 94.65625 C 92.01961 93.466068 93.319242 92.168874 94.738281 90.742188 L 103.47266 99.474609 C 105.17831 101.18025 106.81937 102.77922 107.00195 102.87305 C 107.33083 103.04206 107.59078 103.05342 107.95117 102.91797 C 108.22653 102.81447 114.97758 96.140849 115.44336 95.511719 C 115.79974 95.030399 115.79927 94.600041 115.44336 94.050781 C 115.30278 93.833831 113.77188 92.244539 111.97656 90.449219 L 111.69336 90.166016 L 99.947266 78.419922 C 99.657172 78.126623 99.449837 77.908821 99.138672 77.597656 L 99.011719 77.46875 C 98.95878 77.415892 98.953916 77.412787 98.902344 77.361328 L 28.429688 6.8867188 L 28.300781 6.7578125 C 25.428761 3.8901325 24.579707 3.0952219 24.341797 3.0449219 C 24.254827 3.0265281 24.179666 3.0104399 24.105469 3.0039062 z "
       transform="translate(384.57143,499.798)"
       id="path4753"
       clip-path="url(#clipPath5116)" />
    <rect
       ry="1.2367631"
       y="66.19828"
       x="644.05127"
       height="30.558386"
       width="30.558386"
       id="rect4193"
       style="opacity:1;fill:url(#linearGradient4195);fill-opacity:1;stroke:none;stroke-width:2;stroke-miterlimit:4;stroke-dasharray:none;stroke-opacity:1"
       transform="matrix(0.70710678,0.70710678,-0.70710678,0.70710678,0,0)" />
    <path
       inkscape:connector-curvature="0"
       id="path4197"
       d="m 407.99604,544.52978 c -0.678,-0.5039 -7.27134,-7.23324 -7.39386,-7.54634 -0.28203,-0.72078 -0.31307,-0.68138 3.75838,-4.76886 3.52158,-3.53547 3.77237,-3.76694 4.13383,-3.81551 0.21164,-0.0285 0.50263,-0.0223 0.64666,0.0134 0.31271,0.0776 7.07576,6.77531 7.49335,7.42092 0.2912,0.45024 0.34476,0.92892 0.14436,1.29054 -0.17398,0.31392 -7.24055,7.38938 -7.53431,7.54378 -0.40417,0.21246 -0.84218,0.16408 -1.24841,-0.13782 z m 12.8664,-12.57018 c -0.38836,-0.19959 -7.37554,-7.20863 -7.54697,-7.57058 -0.20686,-0.43675 -0.17062,-0.78783 0.12911,-1.25121 0.14764,-0.22825 1.83513,-1.97577 3.74998,-3.88336 3.76017,-3.74596 3.78359,-3.76439 4.52967,-3.56391 0.28443,0.0765 0.99657,0.73887 3.83045,3.56308 1.91457,1.90806 3.60207,3.65594 3.74997,3.88419 0.35591,0.54926 0.35574,0.98 -6.4e-4,1.46132 -0.46578,0.62913 -7.21735,7.30319 -7.49271,7.40669 -0.36039,0.13545 -0.62001,0.12281 -0.94889,-0.0462 z m -29.69273,-4.03257 c -2.32061,-2.33018 -3.53068,-3.61091 -3.57211,-3.78065 -0.0346,-0.1412 -0.0349,-0.36705 -8.6e-4,-0.5019 0.0379,-0.15129 1.401,-1.60819 3.55911,-3.80399 1.92374,-1.95731 3.53714,-3.57322 3.58534,-3.59093 0.0482,-0.0177 0.1491,0.019 0.22426,0.0813 0.11793,0.0981 0.13661,1.11971 0.13661,7.4691 0,4.04554 -0.0255,7.42196 -0.0564,7.50318 -0.0311,0.0812 -0.12618,0.14765 -0.21127,0.14765 -0.0851,0 -1.73399,-1.58577 -3.66418,-3.52391 z m 9.78965,-0.92447 c -0.10576,-0.12764 -0.13224,-1.54875 -0.15318,-8.22059 -0.0177,-5.6049 0.007,-8.18553 0.0765,-8.45713 0.0889,-0.3411 0.54839,-0.83802 3.61223,-3.90528 3.70983,-3.71393 3.72317,-3.72473 4.41893,-3.57758 0.23791,0.0503 1.086,0.84609 3.95802,3.71377 2.01038,2.00736 3.71883,3.78401 3.79656,3.94816 0.18146,0.38311 0.17907,0.71732 -0.009,1.09166 -0.16719,0.33502 -15.30169,15.56133 -15.46749,15.56133 -0.0581,0 -0.16336,-0.0693 -0.2337,-0.15434 z"
       style="fill:url(#linearGradient4274);fill-opacity:1" />
    <path
       style="fill:url(#linearGradient4200);fill-opacity:1"
       d="m 407.99604,545.02978 c -0.678,-0.5039 -7.27134,-7.23324 -7.39386,-7.54634 -0.28203,-0.72078 -0.31307,-0.68138 3.75838,-4.76886 3.52158,-3.53547 3.77237,-3.76694 4.13383,-3.81551 0.21164,-0.0285 0.50263,-0.0223 0.64666,0.0134 0.31271,0.0776 7.07576,6.77531 7.49335,7.42092 0.2912,0.45024 0.34476,0.92892 0.14436,1.29054 -0.17398,0.31392 -7.24055,7.38938 -7.53431,7.54378 -0.40417,0.21246 -0.84218,0.16408 -1.24841,-0.13782 z m 12.8664,-12.57018 c -0.38836,-0.19959 -7.37554,-7.20863 -7.54697,-7.57058 -0.20686,-0.43675 -0.17062,-0.78783 0.12911,-1.25121 0.14764,-0.22825 1.83513,-1.97577 3.74998,-3.88336 3.76017,-3.74596 3.78359,-3.76439 4.52967,-3.56391 0.28443,0.0765 0.99657,0.73887 3.83045,3.56308 1.91457,1.90806 3.60207,3.65594 3.74997,3.88419 0.35591,0.54926 0.35574,0.98 -6.4e-4,1.46132 -0.46578,0.62913 -7.21735,7.30319 -7.49271,7.40669 -0.36039,0.13545 -0.62001,0.12281 -0.94889,-0.0462 z m -29.69273,-4.03257 c -2.32061,-2.33018 -3.53068,-3.61091 -3.57211,-3.78065 -0.0346,-0.1412 -0.0349,-0.36705 -8.6e-4,-0.5019 0.0379,-0.15129 1.401,-1.60819 3.55911,-3.80399 1.92374,-1.95731 3.53714,-3.57322 3.58534,-3.59093 0.0482,-0.0177 0.1491,0.019 0.22426,0.0813 0.11793,0.0981 0.13661,1.11971 0.13661,7.4691 0,4.04554 -0.0255,7.42196 -0.0564,7.50318 -0.0311,0.0812 -0.12618,0.14765 -0.21127,0.14765 -0.0851,0 -1.73399,-1.58577 -3.66418,-3.52391 z m 9.78965,-0.92447 c -0.10576,-0.12764 -0.13224,-1.54875 -0.15318,-8.22059 -0.0177,-5.6049 0.007,-8.18553 0.0765,-8.45713 0.0889,-0.3411 0.54839,-0.83802 3.61223,-3.90528 3.70983,-3.71393 3.72317,-3.72473 4.41893,-3.57758 0.23791,0.0503 1.086,0.84609 3.95802,3.71377 2.01038,2.00736 3.71883,3.78401 3.79656,3.94816 0.18146,0.38311 0.17907,0.71732 -0.009,1.09166 -0.16719,0.33502 -15.30169,15.56133 -15.46749,15.56133 -0.0581,0 -0.16336,-0.0693 -0.2337,-0.15434 z"
       id="path4198"
       inkscape:connector-curvature="0" />
  </g>
</svg>
